app/assets/images/heroicons/solid/arrow-turn-right-down.svg

<svg width="24" height="24" viewBox="0 0 24 24" fill="none" xmlns="http://www.w3.org/2000/svg">
<path fill-rule="evenodd" clip-rule="evenodd" d="M3.73828 3.75001C3.73828 4.16423 4.07408 4.50002 4.48832 4.50002L14.9893 4.50002L14.9893 18.4389L12.5193 15.9693C12.2263 15.6764 11.7514 15.6764 11.4586 15.9693C11.1657 16.2622 11.1657 16.7371 11.4586 17.03L15.209 20.7799C15.5019 21.0727 15.9767 21.0727 16.2696 20.7799L20.02 17.03C20.3129 16.7371 20.3129 16.2622 20.02 15.9693C19.7271 15.6764 19.2522 15.6764 18.9593 15.9693L16.4893 18.4389L16.4893 3.75001C16.4893 3.33579 16.1535 3 15.7393 3L4.48832 3C4.07408 3 3.73828 3.33579 3.73828 3.75001Z" fill="black"/>
</svg>

<svg xmlns="http://www.w3.org/2000/svg" viewBox="0 0 24 24" fill="currentColor" aria-hidden="true" data-slot="icon">
  <path fill-rule="evenodd" d="M3.738 3.75c0 .414.336.75.75.75H14.99v13.939l-2.47-2.47a.75.75 0 0 0-1.06 1.061l3.75 3.75a.75.75 0 0 0 1.06 0l3.751-3.75a.75.75 0 0 0-1.06-1.06l-2.47 2.469V3.75a.75.75 0 0 0-.75-.75H4.487a.75.75 0 0 0-.75.75Z" clip-rule="evenodd"/>
</svg>
